icons/evolvere-blue-folders-flat-vivid-dark-fallback/actions/64/tools-check-spelling.svg

<?xml version="1.0" encoding="UTF-8" standalone="no"?>
<!-- Created with Inkscape (http://www.inkscape.org/) -->

<svg
   xmlns:dc="http://purl.org/dc/elements/1.1/"
   xmlns:cc="http://creativecommons.org/ns#"
   xmlns:rdf="http://www.w3.org/1999/02/22-rdf-syntax-ns#"
   xmlns:svg="http://www.w3.org/2000/svg"
   xmlns="http://www.w3.org/2000/svg"
   xmlns:xlink="http://www.w3.org/1999/xlink"
   xmlns:sodipodi="http://sodipodi.sourceforge.net/DTD/sodipodi-0.dtd"
   xmlns:inkscape="http://www.inkscape.org/namespaces/inkscape"
   sodipodi:docname="tools-check-spelling.svg"
   inkscape:version="0.91+devel r"
   version="1.1"
   id="svg13094"
   height="64"
   width="64">
  <sodipodi:namedview
     id="base"
     pagecolor="#ffffff"
     bordercolor="#666666"
     borderopacity="1.0"
     inkscape:pageopacity="0"
     inkscape:pageshadow="2"
     inkscape:zoom="11.313709"
     inkscape:cx="17.372752"
     inkscape:cy="31.704898"
     inkscape:document-units="px"
     inkscape:current-layer="svg13094"
     showgrid="true"
     inkscape:snap-bbox="true"
     inkscape:bbox-paths="true"
     inkscape:bbox-nodes="true"
     inkscape:snap-bbox-edge-midpoints="true"
     inkscape:snap-bbox-midpoints="true"
     inkscape:object-paths="true"
     inkscape:snap-intersection-paths="true"
     inkscape:object-nodes="true"
     inkscape:snap-smooth-nodes="true"
     inkscape:snap-midpoints="true"
     inkscape:snap-object-midpoints="true"
     inkscape:snap-center="true"
     showguides="true"
     inkscape:guide-bbox="true"
     inkscape:window-width="1920"
     inkscape:window-height="1023"
     inkscape:window-x="-10"
     inkscape:window-y="35"
     inkscape:window-maximized="1"
     inkscape:snap-global="true"
     fit-margin-top="0"
     fit-margin-left="0"
     fit-margin-right="0"
     fit-margin-bottom="0"
     showborder="true"
     inkscape:showpageshadow="false"
     inkscape:snap-page="true">
    <inkscape:grid
       originy="18px"
       originx="1.6362304e-08px"
       snapvisiblegridlinesonly="true"
       enabled="true"
       visible="true"
       empspacing="5"
       id="grid3075"
       type="xygrid" />
  </sodipodi:namedview>
  <defs
     id="defs13096">
    <linearGradient
       id="linearGradient3094">
      <stop
         offset="0"
         style="stop-color:#b1bac7;stop-opacity:1;"
         id="stop3096" />
      <stop
         offset="1"
         style="stop-color:#a1a8ba;stop-opacity:1;"
         id="stop3104" />
    </linearGradient>
    <linearGradient
       inkscape:collect="always"
       xlink:href="#linearGradient4158-4"
       id="linearGradient3908-6"
       gradientUnits="userSpaceOnUse"
       x1="32"
       y1="23"
       x2="32"
       y2="64.683334" />
    <linearGradient
       id="linearGradient4158-4">
      <stop
         offset="0"
         style="stop-color:#55aa50;stop-opacity:1;"
         id="stop4160-0" />
      <stop
         offset="1"
         style="stop-color:#418353;stop-opacity:1;"
         id="stop4162-9" />
    </linearGradient>
    <linearGradient
       inkscape:collect="always"
       xlink:href="#linearGradient3115"
       id="linearGradient3136-5"
       gradientUnits="userSpaceOnUse"
       x1="32"
       y1="23"
       x2="32"
       y2="64.683334" />
    <linearGradient
       id="linearGradient3115">
      <stop
         id="stop3117"
         style="stop-color:#25ad3b;stop-opacity:1"
         offset="0" />
      <stop
         id="stop3119"
         style="stop-color:#33a144;stop-opacity:1"
         offset="1" />
    </linearGradient>
    <linearGradient
       id="linearGradient4158-4-3">
      <stop
         offset="0"
         style="stop-color:#55aa50;stop-opacity:1;"
         id="stop4160-0-0" />
      <stop
         offset="1"
         style="stop-color:#418353;stop-opacity:1;"
         id="stop4162-9-7" />
    </linearGradient>
  </defs>
  <metadata
     id="metadata13099">
    <rdf:RDF>
      <cc:Work
         rdf:about="">
        <dc:format>image/svg+xml</dc:format>
        <dc:type
           rdf:resource="http://purl.org/dc/dcmitype/StillImage" />
        <dc:title></dc:title>
      </cc:Work>
    </rdf:RDF>
  </metadata>
  <g
     transform="translate(-0.62500009,0.082283)"
     inkscape:export-ydpi="90"
     inkscape:export-xdpi="90"
     inkscape:export-filename="folder.png"
     id="g3043" />
  <g
     style="fill:#ffffff"
     inkscape:label="#g3701"
     transform="matrix(1.0385892,0,0,1.0385892,1214.7222,1878.8121)"
     id="scalable" />
  <path
     id="path6538"
     d="m 0,4 0,30 0,28 2,2 30,0 30,0 2,-2 L 64,34 64,4 32,4 0,4 z"
     style="color:#000000;fill:#aeb4c3;fill-opacity:1;fill-rule:nonzero;stroke:none;stroke-width:2.28571415;marker:none;visibility:visible;display:inline;overflow:visible;enable-background:accumulate;opacity:1;stroke-linecap:butt;stroke-linejoin:miter;stroke-miterlimit:4;stroke-dasharray:none;stroke-dashoffset:0;stroke-opacity:1"
     inkscape:connector-curvature="0" />
  <path
     inkscape:connector-curvature="0"
     style="color:#000000;fill:#e7ecf0;fill-opacity:1;fill-rule:nonzero;stroke:none;marker:none;visibility:visible;display:inline;overflow:visible;enable-background:accumulate"
     d="M 2,0 0,1 0,4 19.5625,4 39.125,4 64,4 64,1 62,0 39.125,0 19.5625,0 2,0 z"
     id="path6688" />
  <path
     d="M 64,6 62,4 64,3 z"
     id="path3028"
     style="fill:#ccd1db;fill-opacity:1;opacity:1;stroke:none;stroke-width:1;stroke-linecap:butt;stroke-linejoin:miter;stroke-miterlimit:4;stroke-dasharray:none;stroke-dashoffset:0;stroke-opacity:1;marker:none"
     inkscape:connector-curvature="0" />
  <path
     inkscape:connector-curvature="0"
     style="fill:#f2f5f7;fill-opacity:1;fill-rule:nonzero"
     d="M 0,3 0,6 2,4 Z"
     id="path4298"
     sodipodi:nodetypes="cccc" />
  <path
     style="font-size:medium;font-style:normal;font-variant:normal;font-weight:normal;font-stretch:normal;text-indent:0;text-align:start;text-decoration:none;line-height:normal;letter-spacing:normal;word-spacing:normal;text-transform:none;direction:ltr;block-progression:tb;writing-mode:lr-tb;text-anchor:start;baseline-shift:baseline;color:#000000;fill:#00122b;fill-opacity:0.74372762;fill-rule:nonzero;stroke:none;stroke-width:2;marker:none;visibility:visible;display:inline;overflow:visible;enable-background:accumulate;font-family:Sans;-inkscape-font-specification:Sans"
     d="M 10.624497,17.002778 A 1.9999222,1.9999222 0 0 0 9.562145,17.5652 L 7.562422,19.564922 A 1.9999222,1.9999222 0 0 0 7,21.002223 l 0,9.686154 a 1.9999222,1.9999222 0 0 0 0,0.312456 L 7,37 l 3.999445,0 0,-3.999445 5.999167,0 0,3.999445 3.999444,0 0,-15.997777 A 1.9999222,1.9999222 0 0 0 20.435634,19.564922 L 18.435912,17.5652 a 1.9999222,1.9999222 0 0 0 -1.4373,-0.562422 l -5.999167,0 a 1.9999222,1.9999222 0 0 0 -0.187474,0 1.9999222,1.9999222 0 0 0 -0.187474,0 z m 12.373282,0 0,17.9975 A 1.9999222,1.9999222 0 0 0 24.685044,37 l 8.686292,0 a 1.9999222,1.9999222 0 0 0 1.062353,-0.562422 l 1.999723,-1.999722 a 1.9999222,1.9999222 0 0 0 0.562422,-1.437301 l 0,-5.999165 a 1.9999222,1.9999222 0 0 0 -0.562422,-1.437302 l -1.999723,-1.999721 a 1.9999222,1.9999222 0 0 0 -1.4373,-0.562422 l -5.999167,0 0,-5.999167 -3.999443,0 z m -11.123455,3.999445 4.249409,0 0.874879,0.874877 0,7.124011 -5.999167,0 0,-7.124011 0.874879,-0.874877 z m 30.745728,1.999722 A 1.9999222,1.9999222 0 0 0 41.5577,23.564367 l -1.999723,1.999721 a 1.9999222,1.9999222 0 0 0 -0.562421,1.437302 l 0,5.999165 a 1.9999222,1.9999222 0 0 0 0.562421,1.437301 L 41.5577,36.437578 A 1.9999222,1.9999222 0 0 0 42.620052,37 l 8.373837,0 0,-3.999445 -7.12401,0 -0.874879,-0.874878 0,-4.24941 0.874879,-0.874877 7.12401,0 0,-3.999445 -7.998889,0 a 1.9999222,1.9999222 0 0 0 -0.187474,0 1.9999222,1.9999222 0 0 0 -0.187474,0 z m -15.62283,3.999445 5.124289,0 0.874878,0.874877 0,4.24941 -0.874878,0.874878 -5.124289,0 0,-5.999165 z"
     id="path3866"
     inkscape:connector-curvature="0" />
  <g
     id="g4050"
     transform="translate(0,-1)">
    <path
       inkscape:connector-curvature="0"
       id="path3975"
       d="M 58.03125,28.875 37,49.9375 27.5,40.40625 23.40625,44.5 34.96875,56.03125 37,58.09375 39.03125,56.03125 62.125,32.96875 58.03125,28.875 z"
       style="font-size:medium;font-style:normal;font-variant:normal;font-weight:normal;font-stretch:normal;text-indent:0;text-align:start;text-decoration:none;line-height:normal;letter-spacing:normal;word-spacing:normal;text-transform:none;direction:ltr;block-progression:tb;writing-mode:lr-tb;text-anchor:start;baseline-shift:baseline;color:#000000;fill:none;fill-opacity:1;stroke:#162f4d;stroke-width:4;stroke-linejoin:round;stroke-miterlimit:4;stroke-opacity:0.07334526;stroke-dasharray:none;marker:none;visibility:visible;display:inline;overflow:visible;enable-background:accumulate;font-family:Sans;-inkscape-font-specification:Sans;opacity:1;stroke-linecap:butt;stroke-dashoffset:0" />
    <path
       style="font-size:medium;font-style:normal;font-variant:normal;font-weight:normal;font-stretch:normal;text-indent:0;text-align:start;text-decoration:none;line-height:normal;letter-spacing:normal;word-spacing:normal;text-transform:none;direction:ltr;block-progression:tb;writing-mode:lr-tb;text-anchor:start;baseline-shift:baseline;color:#000000;fill:none;fill-opacity:1;stroke:#e4eaee;stroke-width:4;stroke-linejoin:round;stroke-miterlimit:4;stroke-opacity:1;stroke-dasharray:none;marker:none;visibility:visible;display:inline;overflow:visible;enable-background:accumulate;font-family:Sans;-inkscape-font-specification:Sans;fill-rule:nonzero;stroke-linecap:butt;stroke-dashoffset:0;opacity:1"
       d="M 57.03125,27.875 36,48.9375 26.5,39.40625 22.40625,43.5 33.96875,55.03125 36,57.09375 38.03125,55.03125 61.125,31.96875 57.03125,27.875 z"
       id="path4020"
       inkscape:connector-curvature="0" />
    <path
       style="font-size:medium;font-style:normal;font-variant:normal;font-weight:normal;font-stretch:normal;text-indent:0;text-align:start;text-decoration:none;line-height:normal;letter-spacing:normal;word-spacing:normal;text-transform:none;direction:ltr;block-progression:tb;writing-mode:lr-tb;text-anchor:start;baseline-shift:baseline;color:#000000;fill:#63b01a;fill-opacity:1;fill-rule:nonzero;stroke:none;stroke-width:1;marker:none;visibility:visible;display:inline;overflow:visible;enable-background:accumulate;font-family:Sans;-inkscape-font-specification:Sans;opacity:1;stroke-linecap:butt;stroke-linejoin:miter;stroke-miterlimit:4;stroke-dasharray:none;stroke-dashoffset:0;stroke-opacity:1"
       d="M 57.03125,27.875 36,48.9375 26.5,39.40625 22.40625,43.5 33.96875,55.03125 36,57.09375 38.03125,55.03125 61.125,31.96875 57.03125,27.875 z"
       id="path4022"
       inkscape:connector-curvature="0" />
  </g>
</svg>

<svg xmlns="http://www.w3.org/2000/svg" viewBox="0 0 64 64"><g color="#000"><path d="m0 4v30 28l2 2h30 30l2-2v-28-30h-32-32" fill="#aeb4c3"/><path d="m2 0l-2 1v3h19.563 19.563 24.875v-3l-2-1h-22.875-19.563-17.563" fill="#e7ecf0"/></g><path d="m64 6l-2-2 2-1z" fill="#ccd1db"/><path d="m0 3v3l2-2" fill="#f2f5f7"/><g color="#000"><path d="M10.624497 17.00278A1.999922 1.999922 0 0 0 9.562145 17.5652L7.562 19.565A1.999922 1.999922 0 0 0 7 21.00222v9.686a1.999922 1.999922 0 0 0 0 .312456V37h3.999v-3.999h5.999v3.999h3.999v-15.998A1.999922 1.999922 0 0 0 20.435634 19.564922L18.436 17.565a1.999922 1.999922 0 0 0 -1.4373 -.562422h-5.999a1.999922 1.999922 0 0 0 -.187474 0 1.999922 1.999922 0 0 0 -.187474 0m12.373 0v17.997A1.999922 1.999922 0 0 0 24.685044 37h8.686a1.999922 1.999922 0 0 0 1.062353 -.562422l2-2a1.999922 1.999922 0 0 0 .562422 -1.437301v-5.999a1.999922 1.999922 0 0 0 -.562422 -1.437302l-2-2a1.999922 1.999922 0 0 0 -1.4373 -.562422h-5.999v-5.999h-3.999m-11.123 3.999h4.249l.875.875v7.124h-5.999v-7.124l.875-.875m30.745728 1.999722A1.999922 1.999922 0 0 0 41.5577 23.564367l-2 2a1.999922 1.999922 0 0 0 -.562421 1.437302v5.999a1.999922 1.999922 0 0 0 .562421 1.437301L41.558 36.438A1.999922 1.999922 0 0 0 42.620052 37h8.374v-3.999h-7.124l-.875-.875v-4.249l.875-.875h7.124v-3.999h-7.999a1.999922 1.999922 0 0 0 -.187474 0 1.999922 1.999922 0 0 0 -.187474 0m-15.623 3.999h5.124l.875.875v4.249l-.875.875h-5.124v-5.999" fill-opacity=".744" fill="#00122b"/><g transform="translate(0-1)"><g fill="none" stroke-linejoin="round" stroke-width="4"><path d="m58.03 28.875l-21.03 21.06-9.5-9.531-4.094 4.094 11.563 11.531 2.031 2.063 2.031-2.063 23.09-23.06-4.094-4.094z" stroke-opacity=".073" stroke="#162f4d"/><path d="m57.03 27.875l-21.03 21.06-9.5-9.531-4.094 4.094 11.563 11.531 2.031 2.063 2.031-2.063 23.09-23.06-4.094-4.094z" stroke="#e4eaee"/></g><path d="m57.03 27.875l-21.03 21.06-9.5-9.531-4.094 4.094 11.563 11.531 2.031 2.063 2.031-2.063 23.09-23.06-4.094-4.094" fill="#63b01a"/></g></g></svg>
